web-app/packages/lib/src/assets/bulb.svg

<svg width="50" height="50" viewBox="0 0 50 50" fill="none" xmlns="http://www.w3.org/2000/svg">
<path d="M25 50C38.8067 50 50 38.8289 50 25.0003C50 11.1712 38.7574 0 25 0C11.1933 0 0 11.1712 0 25.0003C0 38.8289 11.1933 50 25 50Z" fill="#004C45"/>
<path d="M28.6257 34.0587C28.6121 32.8473 26.9923 31.8673 24.9915 31.8673C22.9771 31.8537 21.3438 32.8473 21.3438 34.0587V37.3798L21.3574 38.5912C21.3438 38.6592 21.3438 38.7137 21.3438 38.7817C21.3438 39.9931 22.9635 40.9867 24.9779 41.0003C26.9923 41.014 28.6257 40.0204 28.6257 38.809C28.6257 38.7409 28.6257 38.6592 28.6121 38.5912L28.6257 37.3798V34.0587Z" fill="#262533"/>
<g opacity="0.1">
<path d="M24.9643 36.3441C23.1404 36.3441 21.6704 35.5003 21.3165 34.6836C21.2621 34.8061 21.2212 35.0783 21.3437 35.1464V35.5411C21.7248 36.4258 23.0996 37.3514 24.8554 37.3514C26.7473 37.3514 28.3534 36.5483 28.6529 35.65C28.6529 35.65 28.6529 35.405 28.6529 35.3097C28.6529 35.1872 28.6801 35.1055 28.6257 34.983C28.2445 35.8133 26.7882 36.3441 24.9643 36.3441Z" fill="#BCBCBC"/>
</g>
<g opacity="0.1">
<path d="M24.9643 37.8549C23.1404 37.8549 21.6704 37.011 21.3165 36.1943C21.2621 36.3168 21.2212 36.5891 21.3437 36.6571V37.0518C21.7248 37.9366 23.0996 38.8621 24.8554 38.8621C26.7473 38.8621 28.3534 38.0591 28.6529 37.1607C28.6529 37.1607 28.6529 36.9157 28.6529 36.8204C28.6529 36.6979 28.6801 36.6163 28.6257 36.4938C28.2445 37.3377 26.7882 37.8685 24.9643 37.8549Z" fill="black"/>
</g>
<path d="M24.9638 37.6098C23.1399 37.6098 21.6699 36.7659 21.316 35.9492C21.2616 36.0717 21.2344 36.1942 21.2344 36.3167C21.2344 37.3239 22.7588 38.617 24.8549 38.617C26.951 38.617 28.6932 37.637 28.6932 36.6298C28.6932 36.4937 28.666 36.3712 28.6116 36.2487C28.2441 37.0789 26.7877 37.6098 24.9638 37.6098Z" fill="#BCBCBC"/>
<g opacity="0.1">
<path d="M24.9643 39.516C23.1404 39.516 21.6704 38.6721 21.3165 37.8555C21.2621 37.978 21.2212 38.2502 21.3437 38.3182V38.713C21.7248 39.5977 23.0996 40.5232 24.8554 40.5232C26.7473 40.5232 28.3534 39.7202 28.6529 38.8219C28.6529 38.8219 28.6529 38.5769 28.6529 38.4816C28.6529 38.3455 28.6801 38.2774 28.6257 38.1549C28.2445 38.9852 26.7882 39.516 24.9643 39.516Z" fill="black"/>
</g>
<path d="M24.9643 39.2572C23.1404 39.2572 21.6704 38.4133 21.3165 37.5967C21.2621 37.7192 21.2349 37.8417 21.2349 37.9642C21.2349 38.9714 22.7593 40.2644 24.8554 40.2644C26.9515 40.2644 28.6937 39.2845 28.6937 38.2772C28.6937 38.1547 28.6665 38.0186 28.6121 37.8961C28.2446 38.7264 26.7882 39.2572 24.9643 39.2572Z" fill="#BCBCBC"/>
<g opacity="0.1">
<path d="M28.6258 35.2837C27.9861 37.5159 25.155 39.1901 21.7659 39.1901C21.6434 39.1901 21.5073 39.1901 21.3848 39.1765C21.6842 40.2109 23.1814 41.0003 24.9645 41.0003C26.9789 41.0139 28.6122 40.0203 28.6122 38.809C28.6122 38.7409 28.6259 38.6592 28.6122 38.5912C28.6122 38.5912 28.6667 38.5367 28.6667 38.2645C28.6667 38.1148 28.5986 37.9378 28.5986 37.9378L28.6122 37.3798C28.6122 37.3798 28.5986 37.2165 28.6122 36.9851C28.6259 36.8354 28.6803 36.6312 28.6667 36.5495C28.6667 36.4815 28.6122 36.2637 28.6122 36.2637V35.2837H28.6258Z" fill="black"/>
</g>
<path d="M34.7508 21.3456C34.7508 26.545 30.5314 30.7645 25.3319 30.7645C20.1325 30.7645 15.9131 26.545 15.9131 21.3456C15.9131 16.1462 20.1325 11.9268 25.3319 11.9268C30.545 11.9404 34.7508 16.1462 34.7508 21.3456Z" fill="#FFE840"/>
<path fill-rule="evenodd" clip-rule="evenodd" d="M31.6746 28.3143C31.6746 28.3143 29.6738 29.7163 28.6393 33.7588H21.3846C21.3846 33.7588 21.3302 30.6554 18.6216 27.9604L31.6746 28.3143Z" fill="#FFE840"/>
<g opacity="0.5">
<path fill-rule="evenodd" clip-rule="evenodd" d="M31.2662 19.9433C31.2662 24.0538 27.6457 25.5102 23.5351 25.5102C19.4246 25.5102 17.4102 24.2172 17.4102 20.1066C17.4102 15.9961 21.2485 13.478 25.359 13.478C29.4832 13.4916 31.2662 15.8327 31.2662 19.9433Z" fill="white"/>
</g>
<path d="M22.46 16.8806C22.46 17.6292 21.8475 18.2417 21.0989 18.2417C20.3503 18.2417 19.7378 17.6292 19.7378 16.8806C19.7378 16.132 20.3503 15.5195 21.0989 15.5195C21.8475 15.5195 22.46 16.132 22.46 16.8806Z" fill="#FBFFFF"/>
<path d="M20.0779 19.0316C20.0779 19.4672 19.724 19.8211 19.2885 19.8211C18.8529 19.8211 18.499 19.4672 18.499 19.0316C18.499 18.5961 18.8529 18.2422 19.2885 18.2422C19.7376 18.2558 20.0779 18.5961 20.0779 19.0316Z" fill="#FBFFFF"/>
<path d="M28.6395 33.7581C28.6395 34.8062 27.0198 35.6501 25.019 35.6501C23.0182 35.6501 21.3984 34.8062 21.3984 33.7581C21.3984 32.7101 23.0182 31.8662 25.019 31.8662C27.0198 31.8662 28.6395 32.7237 28.6395 33.7581Z" fill="#F2D925"/>
<path d="M26.9107 33.745C26.9107 34.303 26.0396 34.7658 24.9507 34.7658C23.8754 34.7658 22.9907 34.303 22.9907 33.745C22.9907 33.1869 23.8618 32.7241 24.9507 32.7241C26.026 32.7241 26.9107 33.1733 26.9107 33.745Z" fill="#E8AF1F"/>
<path d="M23.7941 34.2621C23.5219 33.5271 21.3713 27.5382 22.6644 26.5582C22.8958 26.3813 23.168 26.6944 23.4538 27.0346C23.658 27.266 23.903 27.5519 24.0119 27.4974C24.0663 27.4702 24.1072 27.1571 24.1208 27.0074C24.1616 26.6671 24.2161 26.3269 24.4202 26.3132C24.6516 26.2996 24.7333 26.708 24.8149 27.1027C24.8558 27.3205 24.9374 27.688 25.0055 27.7152C25.1008 27.7424 25.2641 27.4021 25.373 27.1844C25.5499 26.8169 25.7269 26.4766 25.9447 26.531C26.1488 26.5855 26.2169 26.953 26.2986 27.3341C26.3394 27.5382 26.4074 27.9194 26.4755 27.9194C26.5844 27.9194 26.7069 27.4702 26.8022 27.1844C26.9383 26.708 27.088 26.218 27.3602 26.3132C27.5235 26.3813 27.6597 26.531 27.7413 26.7624C28.2994 28.4502 26.2986 34.0035 26.2169 34.2621L25.9583 34.3029C25.9855 34.2485 28.0816 28.4502 27.5508 26.8849C27.4963 26.7216 27.4147 26.6263 27.3058 26.5855C27.2241 26.5582 27.0744 27.021 27.0063 27.2796C26.8702 27.7696 26.7341 28.2188 26.4755 28.2052C26.2577 28.178 26.176 27.7832 26.108 27.4021C26.0672 27.1844 25.9991 26.8169 25.9311 26.8032C25.8358 26.776 25.6724 27.1163 25.5635 27.3341C25.3866 27.7016 25.2097 28.0282 24.9919 27.9874C24.7877 27.9466 24.7061 27.5655 24.6244 27.1707C24.5836 26.9802 24.5155 26.5855 24.4474 26.5855C24.4066 26.6127 24.3658 26.8985 24.3522 27.0482C24.3113 27.3749 24.2705 27.6744 24.0936 27.756C23.8622 27.8649 23.6036 27.5655 23.3313 27.2388C23.1408 27.021 22.8822 26.708 22.7733 26.7896C21.8341 27.511 23.3313 32.3566 24.0255 34.2893L23.7941 34.2621Z" fill="#E8AF1F"/>
</svg>

<svg xmlns="http://www.w3.org/2000/svg" width="50" height="50" fill="none" xmlns:v="https://vecta.io/nano"><path d="M25 50a24.99 24.99 0 0 0 25-25C50 11.171 38.757 0 25 0A24.99 24.99 0 0 0 0 25a24.99 24.99 0 0 0 25 25z" fill="#004c45"/><path d="M28.626 34.059c-.014-1.211-1.633-2.191-3.634-2.191-2.014-.014-3.648.98-3.648 2.191v3.321l.014 1.211c-.014.068-.014.123-.014.191 0 1.211 1.62 2.205 3.634 2.219s3.648-.98 3.648-2.191c0-.068 0-.15-.014-.218l.014-1.211v-3.321z" fill="#262533"/><g opacity=".1"><path d="M24.964 36.344c-1.824 0-3.294-.844-3.648-1.66-.054.123-.095.395.027.463v.395c.381.885 1.756 1.81 3.512 1.81 1.892 0 3.498-.803 3.797-1.701v-.34c0-.123.027-.204-.027-.327-.381.83-1.837 1.361-3.661 1.361z" fill="#bcbcbc"/></g><g opacity=".1"><path d="M24.964 37.855c-1.824 0-3.294-.844-3.648-1.661-.054.123-.095.395.027.463v.395c.381.885 1.756 1.81 3.512 1.81 1.892 0 3.498-.803 3.797-1.701v-.34c0-.123.027-.204-.027-.327-.381.844-1.837 1.375-3.661 1.361z" fill="#000"/></g><path d="M24.964 37.61c-1.824 0-3.294-.844-3.648-1.661a.9.9 0 0 0-.082.367c0 1.007 1.524 2.3 3.621 2.3s3.838-.98 3.838-1.987c0-.136-.027-.259-.082-.381-.367.83-1.824 1.361-3.648 1.361z" fill="#bcbcbc"/><g opacity=".1"><path d="M24.964 39.516c-1.824 0-3.294-.844-3.648-1.66-.054.123-.095.395.027.463v.395c.381.885 1.756 1.81 3.512 1.81 1.892 0 3.498-.803 3.797-1.701v-.34c0-.136.027-.204-.027-.327-.381.83-1.837 1.361-3.661 1.361z" fill="#000"/></g><path d="M24.964 39.257c-1.824 0-3.294-.844-3.648-1.66a.9.9 0 0 0-.082.367c0 1.007 1.524 2.3 3.621 2.3s3.838-.98 3.838-1.987a.96.96 0 0 0-.082-.381c-.368.83-1.824 1.361-3.648 1.361z" fill="#bcbcbc"/><g opacity=".1"><path d="M28.626 35.284c-.64 2.232-3.471 3.906-6.86 3.906-.122 0-.259 0-.381-.014.299 1.034 1.797 1.824 3.58 1.824 2.014.014 3.648-.98 3.648-2.191 0-.068.014-.15 0-.218 0 0 .054-.054.054-.327 0-.15-.068-.327-.068-.327l.014-.558s-.014-.163 0-.395c.014-.15.068-.354.054-.436 0-.068-.054-.286-.054-.286v-.98h.014z" fill="#000"/></g><g fill="#ffe840"><path d="M34.751 21.346c0 5.199-4.219 9.419-9.419 9.419s-9.419-4.219-9.419-9.419 4.219-9.419 9.419-9.419c5.213.014 9.419 4.219 9.419 9.419z"/><path fill-rule="evenodd" d="M31.675 28.314s-2.001 1.402-3.035 5.445h-7.255s-.054-3.103-2.763-5.798l13.053.354z"/></g><g opacity=".5"><path fill-rule="evenodd" d="M31.266 19.943c0 4.11-3.62 5.567-7.731 5.567s-6.125-1.293-6.125-5.404 3.838-6.629 7.949-6.629c4.124.014 5.907 2.355 5.907 6.465z" fill="#fff"/></g><path d="M22.46 16.881c0 .749-.613 1.361-1.361 1.361s-1.361-.613-1.361-1.361.613-1.361 1.361-1.361 1.361.613 1.361 1.361zm-2.382 2.151a.79.79 0 0 1-.789.79.79.79 0 0 1-.79-.79.79.79 0 0 1 .79-.789c.449.014.789.354.789.789z" fill="#fbffff"/><path d="M28.64 33.758c0 1.048-1.62 1.892-3.621 1.892s-3.621-.844-3.621-1.892 1.62-1.892 3.621-1.892 3.621.858 3.621 1.892z" fill="#f2d925"/><g fill="#e8af1f"><path d="M26.911 33.745c0 .558-.871 1.021-1.96 1.021-1.075 0-1.96-.463-1.96-1.021s.871-1.021 1.96-1.021c1.075 0 1.96.449 1.96 1.021z"/><path d="M23.794 34.262c-.272-.735-2.423-6.724-1.13-7.704.231-.177.504.136.789.476.204.231.449.517.558.463.054-.027.095-.34.109-.49.041-.34.095-.681.299-.694.231-.014.313.395.395.79.041.218.122.585.191.613.095.027.259-.313.367-.531.177-.367.354-.708.572-.653.204.055.272.422.354.803.041.204.109.585.177.585.109 0 .231-.449.327-.735.136-.476.286-.966.558-.871.163.068.3.218.381.449.558 1.688-1.443 7.241-1.524 7.5l-.259.041c.027-.054 2.123-5.853 1.592-7.418-.054-.163-.136-.259-.245-.299-.082-.027-.231.436-.3.694-.136.49-.272.939-.531.926-.218-.027-.3-.422-.367-.803-.041-.218-.109-.585-.177-.599-.095-.027-.259.313-.368.531-.177.367-.354.694-.572.653-.204-.041-.286-.422-.367-.817-.041-.191-.109-.585-.177-.585-.041.027-.082.313-.095.463-.041.327-.082.626-.259.708-.231.109-.49-.191-.762-.517-.191-.218-.449-.531-.558-.449-.939.721.558 5.567 1.252 7.5l-.231-.027z"/></g></svg>
